X: 24234
T: Lord Moira's Welcome To Scotland
R: strathspey
M: 4/4
K: Gmajor
G<GG<G GB/d/ d2|cA c/B/A/G/ A>GFD|G<GG<G B<d d2|e>gf<a g4:|
b>g a>g f2 d2|eeg>e d>cBG|g<gb>g agf>d|eg f/g/a/f/ g2 ga/b/|
c'>ab>g a>geg|d>Bg>c c/B/A/G/ A>B|G<GG<G c<e e2|dg f/g/a/f/ g4||

